X: 5326
T: Bruise The Pease
R: jig
M: 6/8
K: Edorian
|:EBE G2 A|B2 A GFG|EBE G2 A|B3 BGF|
EBA G2 A|B2 A G2 F|E/F/GE d2 B|e2 B AFD:|
|:B2 e e3|fed e2 d|B2 e e2 g|g2 e fdB|
[1 AA/B/c d3|cec d2 B|ABc dcd|f2 e dcA:|
[2 edc d2 B|BdA G2 F|EFE d2 B|ee/d/B AGF||

